X: 819
T: Reelfoot Reel
C:Bill Monroe
B: jims roots
M:C|
L:1/8
R: Reel
Q: 1/4=100
K:D
V:1 
 |: [=CD][^CD] | "D"[D2D][DD][DD] [DD][DD][DD][DD] | D=F^Fd dFDC | {C}[D2D][D2D] [DD][DD]([DD][DC]) | "C"A,=CEC A,CEC |
"D"{C}[D2D][DD][DD] [DD][DD][DD][DD] | DFAc dcAc | dDFG ABAG |[1 "A"FDED "D"D2 :|[2 "A"FDEF "D"D2D2 |]
"D"DFAc d2e=f | ^fdfg fdAd | dedB AFDB, | "C"A,=CEG "D"FDEG |
"D"DFAc d2e=f | ^fdfg fdAd | dedB AFDB, | "C"A,=CEG "D"[F2A][F2A]||
"D"DFAc d2e=f | ^fdfg fdAc | dAdB AFDB, | "C"A,=CEG "D"FDFA |
"D"DFAc d2e=f | ^fdfg fdAc | dBAG FDED  | "C"A,=CEG "D"[F2A]|]
% abcbook-tune_id 6298c279d997b103b3773bd0


% abcbook-boost 0
% abcbook-tablature 
% abcbook-transpose 
% abcbook-lastupdated 1654178426844
% abcbook-soundfonts 
% abcbook-repeats 1


